public/apps/atelier-des-idees/src/img/icn_close.svg

<svg xmlns="http://www.w3.org/2000/svg" width="24" height="24" viewBox="0 0 24 24"><path fill="#757575" fill-rule="evenodd" d="M12.0216839,10.5857864 L17.5857864,5.02168387 L19,6.43589744 L13.4358974,12 L19.1638195,17.7279221 L17.7496059,19.1421356 L12.0216839,13.4142136 L6.27207794,19.1638195 L4.85786438,17.7496059 L10.6074703,12 L5.02168387,6.41421356 L6.43589744,5 L12.0216839,10.5857864 Z"/></svg>

<svg viewBox="0 0 24 24"><path fill="#757575" fill-rule="evenodd" d="M12.022 10.586l5.564-5.564L19 6.436 13.436 12l5.728 5.728-1.414 1.414-5.728-5.728-5.75 5.75-1.414-1.414 5.75-5.75-5.586-5.586L6.436 5l5.586 5.586z"/></svg>
